static/icons/sdk.svg

<svg width="67" height="60" viewBox="0 0 67 60" fill="none" xmlns="http://www.w3.org/2000/svg">
<path d="M16.3595 26.0829L1.03467 33.7262L16.3595 41.3695L31.6843 33.7262L16.3595 26.0829Z" fill="#EBECE9"/>
<path d="M16.3599 41.3695V59.5224L31.6847 51.8791V33.7262L16.3599 41.3695Z" fill="#D8D8D8"/>
<path d="M28.2832 35.4077V53.5224L31.6845 51.8408V33.7262L28.2832 35.4077Z" fill="#C1C1C1"/>
<path d="M0.996582 33.7262L16.3214 41.3695V59.5224L0.996582 51.8791V33.7262Z" fill="#C1C1C1"/>
<path d="M31.914 33.2675L16.551 25.6242C16.3981 25.5478 16.2452 25.5478 16.0924 25.6242L12.8822 27.2293C12.3089 27.4968 12.7293 28.414 13.3408 28.1465L16.3217 26.6561L30.5382 33.7643L16.3217 40.8726L2.14331 33.7261L10.9713 29.293C11.5446 29.0255 11.1242 28.1083 10.5127 28.3758L0.767516 33.2675C0.61465 33.3822 0.5 33.535 0.5 33.7261V51.8408C0.5 52.0319 0.61465 52.2229 0.767516 52.2994L16.0924 59.9427C16.2452 60.0191 16.3981 60.0191 16.551 59.9427L19.6083 58.414C20.1815 58.1465 19.7611 57.2293 19.1497 57.4968L16.8185 58.6433V41.637L31.1497 34.4905V51.4968L21.5955 56.2739C21.0223 56.5414 21.4427 57.4586 22.0541 57.1911L31.8758 52.2612C32.0287 52.1847 32.1433 51.9936 32.1433 51.8026V33.7261C32.1815 33.535 32.0669 33.344 31.914 33.2675ZM1.49363 51.535V34.5669L15.8248 41.7134V58.7198L1.49363 51.535Z" fill="#244583"/>
<path d="M47.3151 26.0829L31.9902 33.7262L47.3151 41.3695L62.6399 33.7262L47.3151 26.0829Z" fill="#EBECE9"/>
<path d="M47.3149 41.3695V59.5224L62.6398 51.8791V33.7262L47.3149 41.3695Z" fill="#D8D8D8"/>
<path d="M59.2769 35.4077V53.5224L62.6781 51.8408V33.7262L59.2769 35.4077Z" fill="#C1C1C1"/>
<path d="M31.9902 33.7262L47.3151 41.3695V59.5224L31.9902 51.8791V33.7262Z" fill="#C1C1C1"/>
<path d="M62.8694 33.2675L47.5446 25.6242C47.3917 25.5478 47.2389 25.5478 47.086 25.6242L43.8758 27.2293C43.3026 27.4968 43.7229 28.414 44.3344 28.1465L47.3153 26.6561L61.5319 33.7643L47.3153 40.8726L33.0987 33.7261L41.9268 29.293C42.5 29.0255 42.0796 28.1083 41.4682 28.3758L31.7612 33.2675C31.6083 33.344 31.4937 33.535 31.4937 33.7261V51.8408C31.4937 52.0319 31.6083 52.2229 31.7612 52.2994L47.086 59.9427C47.2389 60.0191 47.3917 60.0191 47.5446 59.9427L50.6019 58.414C51.1752 58.1465 50.7548 57.2293 50.1433 57.4968L47.8121 58.6433V41.637L62.1433 34.4905V51.4968L52.5892 56.2739C52.0159 56.5414 52.4363 57.4586 53.0478 57.1911L62.8694 52.2612C63.0223 52.1847 63.137 51.9936 63.137 51.8026V33.7261C63.1752 33.535 63.0223 33.344 62.8694 33.2675ZM32.4873 51.535V34.5669L46.8185 41.7134V58.7198L32.4873 51.535Z" fill="#244583"/>
<path d="M31.9904 0.515991L16.6655 8.1593L31.9904 15.8026L47.3152 8.1593L31.9904 0.515991Z" fill="#EBECE9"/>
<path d="M31.9902 15.8408V33.9937L47.3151 26.3504V8.19751L31.9902 15.8408Z" fill="#D8D8D8"/>
<path d="M43.9521 9.87904V27.9937L47.3534 26.3122V8.19751L43.9521 9.87904Z" fill="#C1C1C1"/>
<path d="M16.6655 8.19751L31.9904 15.8408V33.9937L16.6655 26.3504V8.19751Z" fill="#C1C1C1"/>
<path d="M47.5447 7.73885L32.2199 0.0573248C32.067 -0.0191083 31.9142 -0.0191083 31.7613 0.0573248L28.5511 1.66242C27.9779 1.92994 28.3982 2.84713 29.0097 2.57962L31.9906 1.08917L46.2072 8.19745L31.9906 15.2675L17.774 8.19745L26.6403 3.76433C27.2135 3.49682 26.7931 2.57962 26.1817 2.84713L16.4365 7.73885C16.2836 7.81529 16.1689 8.00637 16.1689 8.19745V26.3121C16.1689 26.5032 16.2836 26.6943 16.4365 26.7707L31.7613 34.414C31.9142 34.4905 32.067 34.4905 32.2199 34.414L35.2772 32.8854C35.8505 32.6178 35.4301 31.7006 34.8186 31.9682L32.4874 33.1147V16.1465L46.8186 9V26.0064L37.2645 30.7834C36.6912 31.051 37.1116 31.9682 37.7231 31.7006L47.5447 26.7707C47.6976 26.6943 47.8122 26.5032 47.8122 26.3121V8.19745C47.8505 7.96815 47.6976 7.81529 47.5447 7.73885ZM17.1626 26.0064V9L31.4938 16.1465V33.1529L17.1626 26.0064Z" fill="#244583"/>
<path d="M65.5826 37.8153C65.3533 37.8153 65.124 37.586 65.124 37.3567V36.516C65.124 36.2867 65.3533 36.0574 65.5826 36.0574C65.8119 36.0574 66.0412 36.2867 66.0412 36.516V37.3567C66.0794 37.586 65.8884 37.8153 65.5826 37.8153Z" fill="#244583"/>
<path d="M65.5826 49.8535C65.3533 49.8535 65.124 49.6242 65.124 49.3949V39.8408C65.124 39.6115 65.3533 39.3822 65.5826 39.3822C65.8119 39.3822 66.0412 39.6115 66.0412 39.8408V49.3949C66.0794 49.6242 65.8884 49.8535 65.5826 49.8535Z" fill="#244583"/>
<path d="M50.4107 12.172C50.1815 12.172 49.9521 11.9427 49.9521 11.7134V10.8727C49.9521 10.6434 50.1815 10.4141 50.4107 10.4141C50.64 10.4141 50.8693 10.6434 50.8693 10.8727V11.7134C50.9076 11.9809 50.6783 12.172 50.4107 12.172Z" fill="#244583"/>
<path d="M50.4107 24.2484C50.1815 24.2484 49.9521 24.0191 49.9521 23.7898V14.2357C49.9521 14.0064 50.1815 13.7771 50.4107 13.7771C50.64 13.7771 50.8693 14.0064 50.8693 14.2357V23.7898C50.9076 24.0191 50.6783 24.2484 50.4107 24.2484Z" fill="#244583"/>
</svg>

<svg xmlns="http://www.w3.org/2000/svg" width="67" height="60" fill="none" xmlns:v="https://vecta.io/nano"><path d="M16.36 26.083L1.035 33.726 16.36 41.37l15.325-7.643-15.325-7.643z" fill="#ebece9"/><path d="M16.36 41.37v18.153l15.325-7.643V33.726L16.36 41.37z" fill="#d8d8d8"/><path d="M28.283 35.408v18.115l3.401-1.682V33.726l-3.401 1.681zM.997 33.726l15.325 7.643v18.153L.997 51.879V33.726z" fill="#c1c1c1"/><path d="M31.914 33.268l-15.363-7.643c-.153-.076-.306-.076-.459 0l-3.21 1.605c-.573.268-.153 1.185.459.917l2.981-1.49 14.217 7.108-14.216 7.108-14.178-7.146 8.828-4.433c.573-.267.153-1.185-.459-.917L.768 33.268c-.153.115-.268.267-.268.459v18.115a.53.53 0 0 0 .268.459l15.325 7.643c.153.076.306.076.459 0l3.057-1.529c.573-.267.153-1.185-.459-.917l-2.331 1.147V41.637l14.331-7.147v17.006l-9.554 4.777c-.573.268-.153 1.185.459.917l9.822-4.93a.53.53 0 0 0 .268-.459V33.726c.038-.191-.076-.382-.229-.459zM1.494 51.535V34.567l14.331 7.147V58.72L1.494 51.535z" fill="#244583"/><path d="M47.315 26.083L31.99 33.726l15.325 7.643 15.325-7.643-15.325-7.643z" fill="#ebece9"/><path d="M47.315 41.37v18.153l15.325-7.643V33.726L47.315 41.37z" fill="#d8d8d8"/><path d="M59.277 35.408v18.115l3.401-1.682V33.726l-3.401 1.681zM31.99 33.726l15.325 7.643v18.153L31.99 51.879V33.726z" fill="#c1c1c1"/><path d="M62.869 33.268l-15.325-7.643c-.153-.076-.306-.076-.459 0l-3.21 1.605c-.573.268-.153 1.185.459.917l2.981-1.49 14.217 7.108-14.217 7.108-14.217-7.146 8.828-4.433c.573-.267.153-1.185-.459-.917l-9.707 4.892a.53.53 0 0 0-.267.459v18.115a.53.53 0 0 0 .267.459l15.325 7.643c.153.076.306.076.459 0l3.057-1.529c.573-.267.153-1.185-.459-.917l-2.331 1.147V41.637l14.331-7.147v17.006l-9.554 4.777c-.573.268-.153 1.185.459.917l9.822-4.93a.53.53 0 0 0 .268-.459V33.726c.038-.191-.115-.382-.268-.459zM32.487 51.535V34.567l14.331 7.147V58.72l-14.331-7.185z" fill="#244583"/><path d="M31.99.516L16.666 8.159l15.325 7.643 15.325-7.643L31.99.516z" fill="#ebece9"/><path d="M31.99 15.841v18.153l15.325-7.643V8.198L31.99 15.841z" fill="#d8d8d8"/><path d="M43.952 9.879v18.115l3.401-1.681V8.198L43.952 9.88zM16.666 8.198l15.325 7.643v18.153L16.666 26.35V8.198z" fill="#c1c1c1"/><g fill="#244583"><path d="M47.545 7.739L32.22.057a.49.49 0 0 0-.459 0l-3.21 1.605c-.573.268-.153 1.185.459.917l2.981-1.49 14.217 7.108-14.217 7.07-14.217-7.07 8.866-4.433c.573-.268.153-1.185-.459-.917l-9.745 4.892a.53.53 0 0 0-.268.459v18.115a.53.53 0 0 0 .268.459l15.325 7.643a.49.49 0 0 0 .459 0l3.057-1.529c.573-.268.153-1.185-.459-.917l-2.331 1.146V16.147L46.819 9v17.006l-9.554 4.777c-.573.268-.153 1.185.459.917l9.822-4.93a.53.53 0 0 0 .267-.459V8.197c.038-.229-.115-.382-.267-.459zM17.163 26.006V9l14.331 7.147v17.006l-14.331-7.147zm48.42 11.809c-.229 0-.459-.229-.459-.459v-.841c0-.229.229-.459.459-.459s.459.229.459.459v.841c.038.229-.153.459-.459.459z"/><path d="M65.583 49.854c-.229 0-.459-.229-.459-.459v-9.554c0-.229.229-.459.459-.459s.459.229.459.459v9.554c.038.229-.153.459-.459.459zM50.411 12.172c-.229 0-.459-.229-.459-.459v-.841c0-.229.229-.459.459-.459s.459.229.459.459v.841c.038.268-.191.459-.459.459zm0 12.076c-.229 0-.459-.229-.459-.459v-9.554c0-.229.229-.459.459-.459s.459.229.459.459v9.554c.038.229-.191.459-.459.459z"/></g></svg>
